; generated by PrusaSlicer 2.9.2 on 2025-08-12 at 07:12:33 UTC

; 

; external perimeters extrusion width = 0.40mm
; perimeters extrusion width = 0.40mm
; infill extrusion width = 0.60mm
; solid infill extrusion width = 0.40mm
; top infill extrusion width = 0.40mm
; first layer extrusion width = 0.40mm

; external perimeters extrusion width = 0.40mm
; perimeters extrusion width = 0.40mm
; infill extrusion width = 0.60mm
; solid infill extrusion width = 0.40mm
; top infill extrusion width = 0.40mm
; first layer extrusion width = 0.40mm

M190 S60 ; set bed temperature and wait for it to be reached
M104 S215 ; set temperature
;TYPE:Custom
M42 S1 ; enciende el LED
G4 P500;
M42 S0 ; apaga el LED
G4 P500;
M42 S1 ; enciende el LED
G4 P100;
M42 S0 ; apaga el LED
G4 P100;
M42 S1 ; enciende el LED
G4 P100;
M42 S0 ; apaga el LED
G4 P400;
M42 S1 ; enciende el LED

G28 ; home all axes
M109 S215 ; set temperature and wait for it to be reached
G21 ; set units to millimeters
G90 ; use absolute coordinates
M82 ; use absolute distances for extrusion
G92 E0
; Filament gcode
M106 S255
;LAYER_CHANGE
;Z:0.2
;HEIGHT:0.2
G1 E-1.5 F2400
G92 E0
G1 Z.47 F12000
G1 X90.015 Y81.863
G1 Z.2
G1 E1.7 F2400
M204 S1000
;TYPE:Skirt/Brim
;WIDTH:0.4
G1 F3360
G1 X90.788 Y81.081 E1.73134
G1 X91.64 Y80.385 E1.7627
G1 X92.592 Y79.765 E1.79508
G1 X93.574 Y79.268 E1.82645
G1 X94.603 Y78.878 E1.85782
G1 X95.667 Y78.6 E1.88917
G1 X96.763 Y78.436 E1.92076
G1 X97.875 Y78.39 E1.95248
G1 X99.354 Y78.516 E1.99479
G1 X100.566 Y78.782 E2.03016
G1 X101.961 Y79.289 E2.07247
G1 X103.263 Y79.986 E2.11456
G1 X104.445 Y80.855 E2.15638
G1 X105.49 Y81.882 E2.19814
G1 X106.401 Y83.077 E2.24097
G1 X107.113 Y84.359 E2.28277
G1 X107.551 Y85.462 E2.3166
G1 X107.843 Y86.523 E2.34797
G1 X112.493 Y109.847 E3.02587
G1 X112.586 Y110.895 E3.05586
G1 X112.57 Y111.946 E3.08582
G1 X112.259 Y113.88 E3.14165
G1 X111.926 Y114.926 E3.17294
G1 X111.522 Y115.856 E3.20184
G1 X110.514 Y117.491 E3.25659
G1 X109.815 Y118.325 E3.28761
G1 X109.079 Y119.039 E3.31684
G1 X107.492 Y120.187 E3.37267
G1 X106.527 Y120.688 E3.40366
G1 X105.574 Y121.064 E3.43286
G1 X103.667 Y121.514 E3.48871
G1 X101.943 Y121.606 E3.53792
G1 X100.381 Y121.439 E3.5827
G1 X98.923 Y121.058 E3.62565
G1 X97.358 Y120.376 E3.67431
G1 X96.066 Y119.551 E3.718
G1 X94.914 Y118.548 E3.76154
G1 X93.937 Y117.406 E3.80438
G1 X93.041 Y115.953 E3.85304
G1 X92.551 Y114.827 E3.88804
G1 X92.159 Y113.478 E3.92808
G1 X87.509 Y90.16 E4.60581
G1 X87.414 Y89.05 E4.63756
G1 X87.438 Y87.948 E4.66898
G1 X87.579 Y86.858 E4.70031
G1 X87.846 Y85.753 E4.73271
G1 X88.217 Y84.718 E4.76405
G1 X88.697 Y83.728 E4.79541
G1 X89.28 Y82.795 E4.82677
G1 X89.978 Y81.91 E4.8589
G1 X90.258 Y82.131 F12000
G1 F3360
G1 X90.279 Y82.104 E4.85987
G1 X91.026 Y81.347 E4.89018
G1 X91.849 Y80.674 E4.92048
G1 X92.771 Y80.074 E4.95184
G1 X93.72 Y79.594 E4.98215
G1 X94.714 Y79.218 E5.01244
G1 X95.743 Y78.949 E5.04276
G1 X96.801 Y78.791 E5.07325
G1 X97.875 Y78.747 E5.10389
G1 X99.343 Y78.875 E5.14589
G1 X100.698 Y79.194 E5.18557
G1 X102.032 Y79.715 E5.22639
G1 X103.105 Y80.309 E5.26135
G1 X104.211 Y81.125 E5.30053
G1 X105.246 Y82.145 E5.34195
G1 X106.103 Y83.274 E5.38235
G1 X106.819 Y84.575 E5.42468
G1 X107.211 Y85.57 E5.45516
G1 X107.493 Y86.596 E5.48549
G1 X112.139 Y109.895 E6.16267
G1 X112.229 Y110.907 E6.19163
G1 X112.214 Y111.927 E6.22071
G1 X111.931 Y113.723 E6.27253
G1 X111.304 Y115.485 E6.32584
G1 X110.835 Y116.374 E6.35449
G1 X110.251 Y117.248 E6.38445
G1 X109.019 Y118.613 E6.43686
G1 X108.251 Y119.253 E6.46536
G1 X107.379 Y119.839 E6.49531
G1 X105.682 Y120.647 E6.54888
G1 X104.696 Y120.951 E6.57829
G1 X103.664 Y121.154 E6.60827
G1 X102.209 Y121.254 E6.64984
G1 X100.522 Y121.102 E6.69812
G1 X99.093 Y120.739 E6.74015
G1 X97.737 Y120.171 E6.78205
G1 X96.328 Y119.301 E6.82925
G1 X95.218 Y118.348 E6.87095
G1 X94.252 Y117.233 E6.913
G1 X93.357 Y115.787 E6.96147
G1 X92.888 Y114.709 E6.99498
G1 X92.507 Y113.4 E7.03384
G1 X87.864 Y90.115 E7.71061
G1 X87.771 Y89.044 E7.74125
G1 X87.794 Y87.979 E7.77161
G1 X87.93 Y86.925 E7.8019
G1 X88.188 Y85.855 E7.83327
G1 X88.547 Y84.855 E7.86355
G1 X89.011 Y83.898 E7.89387
G1 X89.574 Y82.997 E7.92415
G1 X90.22 Y82.178 E7.95388
;WIPE_START
G1 F9600
G1 X90.258 Y82.131 E7.93953
G1 X90.279 Y82.104 E7.93141
G1 X91.026 Y81.347 E7.67883
G1 X91.849 Y80.674 E7.42634
G1 X92.771 Y80.074 E7.16508
G1 X93.72 Y79.594 E6.9125
G1 X94.714 Y79.218 E6.6601
G1 X95.554 Y78.999 E6.45388
;WIPE_END
G92 E0
G1 Z.47 F12000
G92 E0
G1 X104.492 Y113.512
G1 Z.2
G1 E1.5 F2400
;TYPE:External perimeter
;WIDTH:0.399999
G1 F1260
G1 X104.472 Y113.555 E1.50135
G1 X104.351 Y113.601 E1.50504
G1 X102.28 Y113.576 E1.56408
G1 X100.108 Y113.55 E1.62599
G1 X99.977 Y113.491 E1.63009
G1 X99.932 Y113.369 E1.6338
G1 X99.983 Y109.127 E1.75472
G1 X100.042 Y108.996 E1.75882
G1 X100.163 Y108.95 E1.76251
G1 X104.406 Y109.001 E1.88346
G1 X104.536 Y109.06 E1.88753
G1 X104.582 Y109.182 E1.89125
G1 X104.531 Y113.424 E2.01217
G1 X104.517 Y113.457 E2.01319
G1 X104.717 Y113.792 F12000
;TYPE:Perimeter
G1 F1260
G1 X104.633 Y113.879 E2.01664
G1 X104.439 Y113.951 E2.02254
G1 X102.276 Y113.933 E2.0842
G1 X100.104 Y113.907 E2.14611
G1 X99.826 Y113.825 E2.15437
G1 X99.652 Y113.649 E2.16142
G1 X99.575 Y113.365 E2.16981
G1 X99.626 Y109.122 E2.29076
G1 X99.707 Y108.845 E2.29899
G1 X99.879 Y108.674 E2.3059
G1 X100.168 Y108.593 E2.31445
G1 X104.41 Y108.644 E2.43537
G1 X104.669 Y108.714 E2.44302
G1 X104.86 Y108.9 E2.45062
G1 X104.933 Y109.099 E2.45666
G1 X104.931 Y109.86 E2.47835
G1 X104.889 Y113.429 E2.58009
G1 X104.818 Y113.688 E2.58774
G1 X104.759 Y113.749 E2.59016
G1 X104.96 Y114.068 F12000
G1 F1260
G1 X104.743 Y114.225 E2.59779
G1 X104.497 Y114.303 E2.60515
G1 X102.271 Y114.29 E2.6686
G1 X100.1 Y114.264 E2.73049
G1 X99.866 Y114.23 E2.73723
G1 X99.637 Y114.128 E2.74438
G1 X99.446 Y113.968 E2.75148
G1 X99.284 Y113.71 E2.76016
G1 X99.218 Y113.361 E2.77028
G1 X99.269 Y109.118 E2.89123
G1 X99.325 Y108.815 E2.90001
G1 X99.519 Y108.508 E2.91036
G1 X99.69 Y108.37 E2.91662
G1 X100.021 Y108.247 E2.92669
G1 X104.414 Y108.287 E3.05191
G1 X104.653 Y108.322 E3.0588
G1 X105 Y108.515 E3.07012
G1 X105.2 Y108.776 E3.07949
G1 X105.286 Y109.045 E3.08754
G1 X105.288 Y109.864 E3.11088
G1 X105.246 Y113.433 E3.21262
G1 X105.187 Y113.74 E3.22153
G1 X105.003 Y114.028 E3.23127
;WIPE_START
G1 F9600
G1 X104.96 Y114.068 E3.21732
G1 X104.743 Y114.225 E3.15371
G1 X104.497 Y114.303 E3.09242
G1 X102.271 Y114.29 E2.56374
G1 X100.1 Y114.264 E2.04809
G1 X99.866 Y114.23 E1.99193
G1 X99.637 Y114.128 E1.93239
G1 X99.446 Y113.968 E1.87321
G1 X99.284 Y113.71 E1.80086
G1 X99.229 Y113.422 E1.73127
;WIPE_END
G92 E0
G1 Z.47 F12000
G1 X95.276 Y113.573
G1 Z.2
G1 E1.5 F2400
;TYPE:External perimeter
G1 F1680
G1 X95.073 Y112.829 E1.52198
G1 X94.949 Y112.056 E1.54429
G1 X94.907 Y111.275 E1.56658
G1 X94.949 Y110.494 E1.58887
G1 X95.073 Y109.722 E1.61116
G1 X95.28 Y108.966 E1.6335
G1 X95.471 Y108.452 E1.64913
G1 X95.811 Y107.745 E1.67149
G1 X96.206 Y107.105 E1.69293
G1 X96.534 Y106.664 E1.7086
G1 X97.057 Y106.081 E1.73092
G1 X97.639 Y105.558 E1.75322
G1 X98.274 Y105.099 E1.77555
G1 X98.746 Y104.819 E1.79119
G1 X99.453 Y104.482 E1.81351
G1 X100.191 Y104.222 E1.83581
G1 X100.952 Y104.043 E1.85809
G1 X101.73 Y103.945 E1.88044
G1 X102.279 Y103.926 E1.8961
G1 X103.03 Y103.967 E1.91754
G1 X103.804 Y104.09 E1.93988
G1 X104.336 Y104.226 E1.95553
G1 X104.957 Y104.446 E1.97431
G1 X105.869 Y104.878 E2.00307
G1 X106.33 Y105.163 E2.01852
G1 X106.946 Y105.622 E2.04042
G1 X107.628 Y106.273 E2.06729
G1 X108.028 Y106.729 E2.08458
G1 X108.37 Y107.205 E2.10129
G1 X108.762 Y107.865 E2.12317
G1 X109.089 Y108.581 E2.14561
G1 X109.338 Y109.327 E2.16803
G1 X109.505 Y110.094 E2.1904
G1 X109.591 Y110.855 E2.21223
G1 X109.607 Y111.289 E2.22461
G1 X109.563 Y112.072 E2.24696
G1 X109.444 Y112.815 E2.26841
G1 X109.309 Y113.347 E2.28405
G1 X109.048 Y114.086 E2.30639
G1 X108.711 Y114.792 E2.32869
G1 X108.3 Y115.459 E2.35102
G1 X107.971 Y115.899 E2.36668
G1 X107.446 Y116.481 E2.38902
G1 X106.863 Y117.002 E2.41131
G1 X106.253 Y117.443 E2.43277
G1 X105.782 Y117.725 E2.44842
G1 X105.075 Y118.063 E2.47076
G1 X104.338 Y118.324 E2.49305
G1 X103.575 Y118.506 E2.51541
G1 X103.032 Y118.584 E2.53105
G1 X102.249 Y118.625 E2.5534
G1 X101.498 Y118.585 E2.57484
G1 X100.923 Y118.503 E2.5914
G1 X100.191 Y118.329 E2.61285
G1 X99.453 Y118.069 E2.63515
G1 X98.746 Y117.732 E2.65747
G1 X98.274 Y117.452 E2.67311
G1 X97.639 Y116.993 E2.69544
G1 X97.057 Y116.47 E2.71774
G1 X96.534 Y115.887 E2.74006
G1 X96.206 Y115.446 E2.75573
G1 X95.811 Y114.806 E2.77717
G1 X95.471 Y114.099 E2.79953
G1 X95.296 Y113.629 E2.81383
G1 X95.619 Y113.452 F12000
;TYPE:Perimeter
G1 F1890
G1 X95.596 Y113.386 E2.81582
G1 X95.405 Y112.642 E2.83771
G1 X95.299 Y111.904 E2.85896
G1 X95.271 Y111.16 E2.88018
G1 X95.323 Y110.419 E2.90135
G1 X95.453 Y109.689 E2.92248
G1 X95.652 Y108.989 E2.94322
G1 X95.839 Y108.51 E2.95788
G1 X96.176 Y107.833 E2.97944
G1 X96.548 Y107.243 E2.99932
G1 X96.93 Y106.757 E3.01694
G1 X97.496 Y106.167 E3.04024
G1 X97.939 Y105.782 E3.05697
G1 X98.54 Y105.356 E3.07797
G1 X98.99 Y105.098 E3.09276
G1 X99.688 Y104.777 E3.11466
G1 X100.398 Y104.54 E3.136
G1 X101.128 Y104.38 E3.1573
G1 X101.857 Y104.298 E3.17821
G1 X102.37 Y104.289 E3.19283
G1 X103.104 Y104.34 E3.2138
G1 X103.825 Y104.464 E3.23465
G1 X104.322 Y104.6 E3.24934
G1 X105.033 Y104.863 E3.27095
G1 X105.686 Y105.185 E3.2917
G1 X106.121 Y105.453 E3.30626
G1 X106.708 Y105.888 E3.32709
G1 X107.363 Y106.512 E3.35288
G1 X107.742 Y106.943 E3.36924
G1 X108.066 Y107.393 E3.38505
G1 X108.439 Y108.019 E3.40582
G1 X108.752 Y108.7 E3.42718
G1 X108.99 Y109.41 E3.44852
G1 X109.151 Y110.139 E3.4698
G1 X109.234 Y110.867 E3.49069
G1 X109.244 Y111.384 E3.50543
G1 X109.19 Y112.145 E3.52718
G1 X109.071 Y112.832 E3.54705
G1 X108.935 Y113.333 E3.56185
G1 X108.672 Y114.045 E3.58348
G1 X108.344 Y114.706 E3.60451
G1 X107.956 Y115.323 E3.62529
G1 X107.641 Y115.73 E3.63996
G1 X107.012 Y116.39 E3.66595
G1 X106.565 Y116.778 E3.68282
G1 X105.989 Y117.185 E3.70292
G1 X105.536 Y117.446 E3.71782
G1 X104.839 Y117.768 E3.7397
G1 X104.13 Y118.007 E3.76103
G1 X103.413 Y118.168 E3.78198
G1 X102.9 Y118.233 E3.79672
G1 X102.136 Y118.261 E3.81851
G1 X101.436 Y118.216 E3.8385
G1 X100.897 Y118.129 E3.85406
G1 X100.189 Y117.949 E3.87488
G1 X99.494 Y117.693 E3.89599
G1 X98.841 Y117.373 E3.91672
G1 X98.403 Y117.105 E3.93136
G1 X97.736 Y116.6 E3.95521
G1 X97.146 Y116.033 E3.97853
G1 X96.763 Y115.596 E3.99509
G1 X96.461 Y115.179 E4.00977
G1 X96.082 Y114.546 E4.0308
G1 X95.769 Y113.875 E4.0519
G1 X95.639 Y113.508 E4.063
G1 X95.952 Y113.335 F12000
G1 F1890
G1 X95.772 Y112.677 E4.08244
G1 X95.66 Y111.98 E4.10256
G1 X95.623 Y111.275 E4.12268
G1 X95.66 Y110.57 E4.1428
G1 X95.772 Y109.874 E4.16289
G1 X95.94 Y109.26 E4.18103
G1 X96.129 Y108.732 E4.19702
G1 X96.438 Y108.088 E4.21738
G1 X96.764 Y107.56 E4.23507
G1 X97.087 Y107.117 E4.2507
G1 X97.563 Y106.587 E4.27101
G1 X98.088 Y106.114 E4.29115
G1 X98.613 Y105.735 E4.30961
G1 X99.082 Y105.449 E4.32527
G1 X99.726 Y105.143 E4.34559
G1 X100.392 Y104.908 E4.36572
G1 X101.079 Y104.746 E4.38584
G1 X101.705 Y104.668 E4.40382
G1 X102.272 Y104.641 E4.42
G1 X102.954 Y104.678 E4.43947
G1 X103.581 Y104.778 E4.45757
G1 X104.129 Y104.91 E4.47364
G1 X104.801 Y105.148 E4.49396
G1 X105.444 Y105.456 E4.51428
G1 X105.912 Y105.742 E4.52991
G1 X106.469 Y106.154 E4.54966
G1 X107.098 Y106.751 E4.57438
G1 X107.456 Y107.157 E4.58981
G1 X107.762 Y107.58 E4.60469
G1 X108.117 Y108.173 E4.62439
G1 X108.416 Y108.819 E4.64468
G1 X108.643 Y109.492 E4.66492
G1 X108.797 Y110.184 E4.68513
G1 X108.878 Y110.88 E4.7051
G1 X108.892 Y111.282 E4.71657
G1 X108.852 Y111.995 E4.73693
G1 X108.756 Y112.593 E4.75419
G1 X108.624 Y113.14 E4.77023
G1 X108.387 Y113.813 E4.79057
G1 X108.083 Y114.45 E4.81069
G1 X107.743 Y115.001 E4.82914
G1 X107.418 Y115.444 E4.8448
G1 X106.941 Y115.974 E4.86512
G1 X106.415 Y116.446 E4.88526
G1 X105.912 Y116.809 E4.90294
G1 X105.444 Y117.095 E4.91857
G1 X104.801 Y117.403 E4.93889
G1 X104.135 Y117.638 E4.95902
G1 X103.52 Y117.785 E4.97704
G1 X102.962 Y117.873 E4.99314
G1 X102.249 Y117.91 E5.01349
G1 X101.568 Y117.874 E5.03293
G1 X101.057 Y117.8 E5.04765
G1 X100.393 Y117.643 E5.0671
G1 X99.726 Y117.408 E5.08726
G1 X99.145 Y117.131 E5.10561
G1 X98.666 Y116.854 E5.12138
G1 X98.088 Y116.436 E5.14171
G1 X97.563 Y115.964 E5.16183
G1 X97.13 Y115.481 E5.18032
G1 X96.797 Y115.045 E5.19596
G1 X96.438 Y114.463 E5.21545
G1 X96.161 Y113.885 E5.23372
G1 X95.97 Y113.392 E5.24879
;WIPE_START
G1 F9600
G1 X95.952 Y113.335 E5.23459
G1 X95.772 Y112.677 E5.07257
G1 X95.66 Y111.98 E4.90491
G1 X95.623 Y111.275 E4.73724
G1 X95.66 Y110.57 E4.56957
G1 X95.772 Y109.874 E4.40214
G1 X95.94 Y109.26 E4.25095
G1 X96.129 Y108.732 E4.11776
G1 X96.438 Y108.088 E3.94811
G1 X96.764 Y107.56 E3.80073
G1 X96.893 Y107.383 E3.74879
;WIPE_END
G92 E0
G1 Z.47 F12000
G1 X107.712 Y107.805
G1 Z.2
G1 E1.5 F2400
;TYPE:Solid infill
;WIDTH:0.403553
G1 F2100
G1 X106.692 Y106.786 E1.54151
G1 X106.213 Y106.356 E1.56004
G1 X105.684 Y105.973 E1.57884
G1 X105.292 Y105.739 E1.59198
G1 X104.993 Y105.597 E1.60151
G1 X107.936 Y108.539 E1.7213
G1 X108.09 Y108.861 E1.73158
G1 X108.276 Y109.389 E1.7477
G1 X104.143 Y105.256 E1.91596
G1 X103.461 Y105.084 E1.93621
G1 X108.451 Y110.074 E2.13936
G1 X108.534 Y110.667 E2.1566
G1 X102.861 Y104.994 E2.38756
G1 X102.323 Y104.967 E2.40307
G1 X108.568 Y111.211 E2.65729
G1 X108.547 Y111.7 E2.67138
G1 X101.824 Y104.978 E2.94506
G1 X101.37 Y105.034 E2.95823
G1 X104.309 Y107.972 E3.07786
G1 X103.791 Y107.965 E3.09277
G1 X100.937 Y105.11 E3.20898
G1 X100.524 Y105.207 E3.22119
G1 X103.274 Y107.958 E3.33317
G1 X102.757 Y107.95 E3.34805
G1 X100.143 Y105.337 E3.45445
G1 X99.773 Y105.476 E3.46583
G1 X102.24 Y107.943 E3.56626
G1 X101.723 Y107.936 E3.58114
G1 X99.428 Y105.641 E3.67457
G1 X99.093 Y105.817 E3.68546
G1 X101.206 Y107.929 E3.77146
G1 X100.688 Y107.922 E3.78637
G1 X98.778 Y106.012 E3.86413
G1 X98.482 Y106.226 E3.87464
G1 X100.171 Y107.915 E3.9434
G1 X99.972 Y107.929 E3.94914
G1 X99.741 Y107.995 E3.95606
G1 X98.196 Y106.45 E4.01896
G1 X97.928 Y106.691 E4.02934
G1 X99.417 Y108.18 E4.08996
G1 X99.286 Y108.286 E4.09481
G1 X99.172 Y108.446 E4.10047
G1 X97.673 Y106.946 E4.16152
G1 X97.431 Y107.215 E4.17194
G1 X99.003 Y108.786 E4.23592
G1 X98.956 Y108.972 E4.24144
G1 X98.953 Y109.246 E4.24933
G1 X97.204 Y107.498 E4.32051
G1 X96.995 Y107.798 E4.33104
G1 X98.946 Y109.749 E4.41047
G1 X98.939 Y110.252 E4.42495
G1 X96.8 Y108.114 E4.51201
G1 X96.623 Y108.446 E4.52284
G1 X98.932 Y110.755 E4.61684
G1 X98.925 Y111.259 E4.63135
G1 X96.457 Y108.791 E4.73183
G1 X96.314 Y109.157 E4.74314
G1 X98.918 Y111.762 E4.84917
G1 X98.911 Y112.265 E4.86365
G1 X96.194 Y109.548 E4.97426
G1 X96.087 Y109.942 E4.98601
G1 X98.904 Y112.768 E5.10088
G1 X98.898 Y113.271 E5.11536
G1 X95.875 Y110.248 E5.23843
;WIPE_START
G1 F9600
G1 X98.898 Y113.271 E4.22308
G1 X98.904 Y112.768 E4.10361
G1 X97.818 Y111.679 E3.73843
;WIPE_END
G92 E0
G1 Z.47 F12000
G1 X108.64 Y112.303
G1 Z.2
G1 E1.5 F2400
G1 F2100
G1 X105.617 Y109.28 E1.62307
G1 X105.611 Y109.784 E1.63758
G1 X108.428 Y112.605 E1.75235
G1 X108.326 Y113.009 E1.76435
G1 X105.605 Y110.288 E1.87513
G1 X105.599 Y110.792 E1.88964
G1 X108.196 Y113.389 E1.99537
G1 X108.056 Y113.76 E2.00679
G1 X105.593 Y111.296 E2.10708
G1 X105.587 Y111.8 E2.12159
G1 X107.891 Y114.105 E2.21541
G1 X107.713 Y114.437 E2.22625
G1 X105.58 Y112.304 E2.31309
G1 X105.574 Y112.808 E2.3276
G1 X107.519 Y114.752 E2.40676
G1 X107.31 Y115.053 E2.41731
G1 X105.568 Y113.312 E2.48821
G1 X105.558 Y113.577 E2.49584
G1 X105.511 Y113.764 E2.50139
G1 X107.083 Y115.336 E2.56539
G1 X106.841 Y115.605 E2.57581
G1 X105.343 Y114.107 E2.6368
G1 X105.168 Y114.324 E2.64483
G1 X105.1 Y114.374 E2.64726
G1 X106.587 Y115.86 E2.70778
G1 X106.318 Y116.101 E2.71818
G1 X104.773 Y114.557 E2.78106
G1 X104.547 Y114.621 E2.78782
G1 X104.343 Y114.636 E2.79371
G1 X106.032 Y116.326 E2.86249
G1 X105.736 Y116.539 E2.87299
G1 X103.827 Y114.63 E2.95071
G1 X103.31 Y114.624 E2.96559
G1 X105.421 Y116.734 E3.05151
G1 X105.086 Y116.91 E3.0624
G1 X102.794 Y114.618 E3.15571
