; generated by PrusaSlicer 2.9.2 on 2025-08-12 at 07:10:49 UTC

; 

; external perimeters extrusion width = 0.40mm
; perimeters extrusion width = 0.40mm
; infill extrusion width = 0.60mm
; solid infill extrusion width = 0.40mm
; top infill extrusion width = 0.40mm
; first layer extrusion width = 0.40mm

; external perimeters extrusion width = 0.40mm
; perimeters extrusion width = 0.40mm
; infill extrusion width = 0.60mm
; solid infill extrusion width = 0.40mm
; top infill extrusion width = 0.40mm
; first layer extrusion width = 0.40mm

M190 S60 ; set bed temperature and wait for it to be reached
M104 S210 ; set temperature
;TYPE:Custom
M42 S1 ; enciende el LED
G4 P500;
M42 S0 ; apaga el LED
G4 P500;
M42 S1 ; enciende el LED
G4 P100;
M42 S0 ; apaga el LED
G4 P100;
M42 S1 ; enciende el LED
G4 P100;
M42 S0 ; apaga el LED
G4 P400;
M42 S1 ; enciende el LED

G28 ; home all axes
M109 S210 ; set temperature and wait for it to be reached
G21 ; set units to millimeters
G90 ; use absolute coordinates
M82 ; use absolute distances for extrusion
G92 E0
; Filament gcode
M106 S255
;LAYER_CHANGE
;Z:0.2
;HEIGHT:0.2
G1 E-1.5 F2400
G92 E0
G1 Z.47 F12000
G1 X84.61 Y81.847
G1 Z.2
G1 E1.7 F2400
M204 S1000
;TYPE:Skirt/Brim
;WIDTH:0.4
G1 F3360
G1 X85.196 Y81.404 E1.72138
G1 X85.968 Y81.073 E1.74582
G1 X86.832 Y80.838 E1.77187
G1 X88.788 Y80.637 E1.82908
G1 X106.131 Y81.214 E2.334
G1 X107.179 Y81.48 E2.36546
G1 X107.952 Y81.866 E2.3906
G1 X109.15 Y83.137 E2.44142
G1 X117.682 Y103.099 E3.07309
G1 X118.234 Y104.889 E3.12759
G1 X118.375 Y105.959 E3.15899
G1 X118.368 Y107.272 E3.1972
G1 X118.186 Y108.477 E3.23266
G1 X117.887 Y109.515 E3.26409
G1 X117.4 Y110.632 E3.29955
G1 X116.843 Y111.556 E3.33094
G1 X116.083 Y112.509 E3.36641
G1 X115.125 Y113.407 E3.40462
G1 X114.325 Y113.982 E3.43329
G1 X113.465 Y114.463 E3.46196
G1 X112.557 Y114.845 E3.49062
G1 X111.52 Y115.144 E3.52202
G1 X91.862 Y118.596 E4.10277
G1 X90.628 Y118.505 E4.13877
G1 X86.823 Y116.937 E4.25852
G1 X85.326 Y116.031 E4.30944
G1 X84.719 Y115.507 E4.33277
G1 X84.145 Y114.872 E4.35768
G1 X83.449 Y113.86 E4.39342
G1 X82.927 Y112.841 E4.42673
G1 X82.661 Y111.993 E4.45259
G1 X82.566 Y111.108 E4.47849
G1 X83.683 Y83.656 E5.27793
G1 X83.851 Y83.009 E5.29738
G1 X84.146 Y82.416 E5.31665
G1 X84.572 Y81.894 E5.33625
G1 X84.847 Y82.118 F12000
G1 F3360
G1 X84.857 Y82.105 E5.33673
G1 X85.374 Y81.714 E5.35559
G1 X86.085 Y81.411 E5.37808
G1 X86.911 Y81.187 E5.40298
G1 X88.787 Y80.994 E5.45785
G1 X106.119 Y81.571 E5.96245
G1 X107.019 Y81.799 E5.98946
G1 X107.792 Y82.185 E6.0146
G1 X108.821 Y83.278 E6.05828
G1 X117.352 Y103.235 E6.68981
G1 X117.885 Y104.962 E6.7424
G1 X118.019 Y105.979 E6.77225
G1 X118.019 Y107.158 E6.80656
G1 X117.837 Y108.404 E6.8432
G1 X117.553 Y109.391 E6.87308
G1 X117.043 Y110.543 E6.90974
G1 X116.416 Y111.54 E6.94401
G1 X115.762 Y112.331 E6.97387
G1 X114.898 Y113.132 E7.00815
G1 X114.13 Y113.683 E7.03565
G1 X113.304 Y114.144 E7.06317
G1 X112.433 Y114.51 E7.09066
G1 X111.447 Y114.794 E7.12052
G1 X91.8 Y118.244 E7.70094
G1 X90.716 Y118.159 E7.73258
G1 X86.977 Y116.615 E7.85029
G1 X85.539 Y115.745 E7.89919
G1 X84.47 Y114.705 E7.94259
G1 X83.753 Y113.673 E7.97915
G1 X83.281 Y112.76 E8.00906
G1 X83.01 Y111.915 E8.03488
G1 X82.923 Y111.1 E8.05873
G1 X84.028 Y83.766 E8.85473
G1 X84.172 Y83.17 E8.87257
G1 X84.449 Y82.606 E8.89085
G1 X84.809 Y82.164 E8.90744
;WIPE_START
G1 F9600
G1 X84.847 Y82.118 E8.89327
G1 X84.857 Y82.105 E8.88937
G1 X85.374 Y81.714 E8.73542
G1 X86.085 Y81.411 E8.55186
G1 X86.911 Y81.187 E8.3486
G1 X88.787 Y80.994 E7.9007
G1 X90.863 Y81.063 E7.40744
;WIPE_END
G92 E0
G1 Z.47 F12000
G92 E0
G1 X108.527 Y112.253
G1 Z.2
G1 E1.5 F2400
;TYPE:External perimeter
;WIDTH:0.399999
G1 F1260
G1 X108.111 Y112.167 E1.51236
G1 X107.596 Y111.997 E1.52814
G1 X107.096 Y111.79 E1.54389
G1 X106.622 Y111.528 E1.55965
G1 X106.169 Y111.232 E1.5754
G1 X105.752 Y110.886 E1.59117
G1 X105.362 Y110.511 E1.60691
G1 X105.016 Y110.093 E1.6227
G1 X104.704 Y109.652 E1.63842
G1 X104.441 Y109.177 E1.65422
G1 X104.216 Y108.686 E1.66994
G1 X104.046 Y108.171 E1.68572
G1 X103.902 Y107.537 E1.70464
G1 X103.829 Y106.892 E1.72353
G1 X103.83 Y106.24 E1.7425
G1 X103.88 Y105.705 E1.75813
G1 X104.018 Y105.066 E1.77715
G1 X104.211 Y104.451 E1.79591
G1 X104.483 Y103.858 E1.81489
G1 X104.819 Y103.301 E1.83382
G1 X105.214 Y102.787 E1.85268
G1 X105.582 Y102.419 E1.86782
G1 X106.106 Y101.959 E1.88811
G1 X106.631 Y101.604 E1.90655
G1 X107.201 Y101.303 E1.92531
G1 X107.805 Y101.067 E1.94418
G1 X108.321 Y100.918 E1.95981
G1 X108.858 Y100.827 E1.97566
G1 X109.395 Y100.777 E1.99135
G1 X109.937 Y100.787 E2.00712
G1 X110.582 Y100.86 E2.02601
G1 X111.112 Y100.971 E2.04177
G1 X111.627 Y101.14 E2.05754
G1 X112.126 Y101.347 E2.07326
G1 X112.6 Y101.609 E2.08902
G1 X113.053 Y101.905 E2.10477
G1 X113.47 Y102.251 E2.12054
G1 X113.86 Y102.626 E2.13628
G1 X114.205 Y103.044 E2.15205
G1 X114.519 Y103.486 E2.16783
G1 X114.781 Y103.96 E2.18359
G1 X115.006 Y104.451 E2.19931
G1 X115.175 Y104.966 E2.21508
G1 X115.32 Y105.599 E2.23398
G1 X115.392 Y106.243 E2.25284
G1 X115.392 Y106.894 E2.27178
G1 X115.342 Y107.432 E2.2875
G1 X115.231 Y107.963 E2.30328
G1 X115.081 Y108.483 E2.31903
G1 X114.874 Y108.983 E2.33478
G1 X114.63 Y109.466 E2.35053
G1 X114.333 Y109.919 E2.36629
G1 X113.928 Y110.427 E2.38519
G1 X113.553 Y110.817 E2.40093
G1 X113.136 Y111.163 E2.4167
G1 X112.694 Y111.476 E2.43246
G1 X112.22 Y111.738 E2.44822
G1 X111.728 Y111.964 E2.46397
G1 X111.214 Y112.133 E2.47971
G1 X110.581 Y112.277 E2.4986
G1 X109.935 Y112.35 E2.51752
G1 X109.286 Y112.35 E2.5364
G1 X108.641 Y112.277 E2.55529
G1 X108.585 Y112.266 E2.55695
G1 X108.586 Y111.901 F12000
;TYPE:Perimeter
G1 F1260
G1 X108.203 Y111.822 E2.56833
G1 X107.72 Y111.662 E2.58314
G1 X107.251 Y111.469 E2.5979
G1 X106.806 Y111.222 E2.61271
G1 X106.381 Y110.944 E2.62749
G1 X105.99 Y110.619 E2.64228
G1 X105.624 Y110.268 E2.65704
G1 X105.3 Y109.875 E2.67186
G1 X105.006 Y109.462 E2.68661
G1 X104.76 Y109.016 E2.70143
G1 X104.548 Y108.555 E2.71619
G1 X104.39 Y108.072 E2.73098
G1 X104.254 Y107.478 E2.74871
G1 X104.186 Y106.872 E2.76645
G1 X104.186 Y106.26 E2.78426
G1 X104.233 Y105.758 E2.79893
G1 X104.364 Y105.152 E2.81697
G1 X104.543 Y104.585 E2.83427
G1 X104.8 Y104.026 E2.85217
G1 X105.115 Y103.503 E2.86994
G1 X105.483 Y103.023 E2.88754
G1 X105.834 Y102.671 E2.902
G1 X106.324 Y102.242 E2.92095
G1 X106.815 Y101.91 E2.9382
G1 X107.35 Y101.628 E2.9558
G1 X107.917 Y101.406 E2.97352
G1 X108.401 Y101.266 E2.98818
G1 X108.904 Y101.181 E3.00302
G1 X109.409 Y101.134 E3.01778
G1 X109.917 Y101.144 E3.03256
G1 X110.523 Y101.212 E3.0503
G1 X111.02 Y101.315 E3.06507
G1 X111.502 Y101.475 E3.07985
G1 X111.971 Y101.668 E3.09461
G1 X112.416 Y101.915 E3.10942
G1 X112.841 Y102.193 E3.1242
G1 X113.232 Y102.517 E3.13898
G1 X113.598 Y102.869 E3.15376
G1 X113.922 Y103.261 E3.16856
G1 X114.217 Y103.676 E3.18338
G1 X114.462 Y104.121 E3.19816
G1 X114.674 Y104.581 E3.2129
G1 X114.832 Y105.065 E3.22771
G1 X114.968 Y105.659 E3.24544
G1 X115.036 Y106.264 E3.26315
G1 X115.036 Y106.873 E3.28087
G1 X114.989 Y107.379 E3.29566
G1 X114.885 Y107.877 E3.31046
G1 X114.744 Y108.365 E3.32524
G1 X114.549 Y108.834 E3.34002
G1 X114.321 Y109.288 E3.3548
G1 X114.042 Y109.713 E3.36959
G1 X113.662 Y110.189 E3.38731
G1 X113.31 Y110.555 E3.40209
G1 X112.918 Y110.879 E3.41689
G1 X112.504 Y111.174 E3.43168
G1 X112.059 Y111.419 E3.44646
G1 X111.598 Y111.631 E3.46122
G1 X111.115 Y111.79 E3.47602
G1 X110.521 Y111.925 E3.49374
G1 X109.915 Y111.993 E3.51148
G1 X109.306 Y111.993 E3.5292
G1 X108.7 Y111.925 E3.54694
G1 X108.645 Y111.914 E3.54857
G1 X108.645 Y111.554 F12000
G1 F1260
G1 X108.471 Y111.524 E3.55371
G1 X107.95 Y111.367 E3.56954
G1 X107.406 Y111.147 E3.58661
G1 X106.895 Y110.859 E3.60368
G1 X106.447 Y110.549 E3.61953
G1 X106.009 Y110.158 E3.63661
G1 X105.652 Y109.748 E3.65243
G1 X105.308 Y109.272 E3.66952
G1 X105.029 Y108.756 E3.68659
G1 X104.814 Y108.256 E3.70243
G1 X104.654 Y107.7 E3.71926
G1 X104.559 Y107.138 E3.73584
G1 X104.527 Y106.568 E3.75245
G1 X104.586 Y105.811 E3.77454
G1 X104.711 Y105.238 E3.7916
G1 X104.874 Y104.719 E3.80743
G1 X105.116 Y104.193 E3.82428
G1 X105.41 Y103.704 E3.84088
G1 X105.752 Y103.258 E3.85723
G1 X106.301 Y102.71 E3.8798
G1 X106.747 Y102.368 E3.89615
G1 X107.235 Y102.073 E3.91274
G1 X107.753 Y101.836 E3.92932
G1 X108.48 Y101.614 E3.95144
G1 X109.058 Y101.521 E3.96847
G1 X109.604 Y101.484 E3.98439
G1 X110.18 Y101.516 E4.00118
G1 X110.927 Y101.66 E4.02332
G1 X111.482 Y101.848 E4.04037
G1 X111.979 Y102.069 E4.0562
G1 X112.482 Y102.372 E4.07329
G1 X112.91 Y102.709 E4.08914
G1 X113.336 Y103.112 E4.1062
G1 X113.706 Y103.566 E4.12324
G1 X114.011 Y104.02 E4.13915
G1 X114.275 Y104.543 E4.1562
G1 X114.489 Y105.163 E4.17528
G1 X114.616 Y105.718 E4.19185
G1 X114.679 Y106.284 E4.20842
G1 X114.695 Y106.568 E4.2167
G1 X114.663 Y107.146 E4.23354
G1 X114.565 Y107.682 E4.24939
G1 X114.407 Y108.247 E4.26646
G1 X114.178 Y108.787 E4.28353
G1 X113.921 Y109.266 E4.29935
G1 X113.586 Y109.738 E4.31619
G1 X113.2 Y110.17 E4.33305
G1 X112.79 Y110.528 E4.34889
G1 X112.315 Y110.871 E4.36594
G1 X111.799 Y111.151 E4.38302
G1 X111.298 Y111.365 E4.39887
G1 X110.742 Y111.525 E4.4157
G1 X110.18 Y111.621 E4.43229
G1 X109.611 Y111.653 E4.44887
G1 X109.042 Y111.621 E4.46545
G1 X108.705 Y111.564 E4.4754
;WIPE_START
G1 F9600
G1 X108.645 Y111.554 E4.46095
G1 X108.471 Y111.524 E4.41902
G1 X107.95 Y111.367 E4.28979
G1 X107.406 Y111.147 E4.15042
G1 X106.895 Y110.859 E4.01111
G1 X106.447 Y110.549 E3.88172
G1 X106.009 Y110.158 E3.74228
G1 X105.652 Y109.748 E3.61316
G1 X105.308 Y109.272 E3.47368
G1 X105.029 Y108.756 E3.33436
G1 X104.814 Y108.256 E3.2051
G1 X104.654 Y107.7 E3.06769
G1 X104.589 Y107.317 E2.9754
;WIPE_END
G92 E0
G1 Z.47 F12000
G1 X112.104 Y102.332
G1 Z.2
G1 E1.5 F2400
;TYPE:Solid infill
;WIDTH:0.408983
G1 F2100
G1 X113.214 Y103.453 E1.54706
G1 X113.553 Y103.895 E1.56368
G1 X113.731 Y104.178 E1.57365
G1 X114.015 Y104.76 E1.59297
G1 X111.424 Y102.169 E1.70227
G1 X111.005 Y102.014 E1.7156
G1 X110.661 Y101.924 E1.72621
G1 X114.256 Y105.519 E1.87787
G1 X114.349 Y106.129 E1.89628
G1 X110.05 Y101.831 E2.07761
G1 X109.518 Y101.817 E2.09348
G1 X114.368 Y106.666 E2.29806
G1 X114.337 Y107.153 E2.31262
G1 X109.033 Y101.849 E2.53637
G1 X108.586 Y101.92 E2.54987
G1 X114.257 Y107.59 E2.78908
G1 X114.152 Y108.003 E2.80179
G1 X108.182 Y102.033 E3.05364
G1 X107.799 Y102.168 E3.06575
G1 X114.011 Y108.38 E3.3278
G1 X113.848 Y108.735 E3.33945
G1 X107.444 Y102.331 E3.6096
G1 X107.116 Y102.52 E3.62089
G1 X113.664 Y109.069 E3.89714
G1 X113.65 Y109.093 E3.89797
G1 X113.451 Y109.373 E3.90822
G1 X106.805 Y102.728 E4.18856
G1 X106.513 Y102.953 E4.19956
G1 X113.223 Y109.663 E4.48262
G1 X112.978 Y109.936 E4.49356
G1 X106.254 Y103.211 E4.77723
G1 X105.995 Y103.47 E4.78816
G1 X112.709 Y110.185 E5.07141
G1 X112.416 Y110.409 E5.08241
G1 X105.77 Y103.763 E5.36277
G1 X105.563 Y104.073 E5.37389
G1 X112.11 Y110.62 E5.65008
G1 X111.774 Y110.803 E5.66149
G1 X105.373 Y104.402 E5.93152
G1 X105.211 Y104.757 E5.94316
G1 X111.424 Y110.97 E6.20526
G1 X111.041 Y111.105 E6.21737
G1 X105.07 Y105.134 E6.46926
G1 X104.965 Y105.547 E6.48197
G1 X110.636 Y111.217 E6.72118
G1 X110.194 Y111.293 E6.73456
G1 X104.885 Y105.984 E6.95852
G1 X104.854 Y106.471 E6.97308
G1 X109.709 Y111.325 E7.17787
G1 X109.172 Y111.306 E7.1939
G1 X104.873 Y107.008 E7.37523
G1 X104.966 Y107.618 E7.39364
G1 X108.561 Y111.213 E7.5453
G1 X108.218 Y111.123 E7.55588
G1 X107.797 Y110.967 E7.56927
G1 X105.207 Y108.377 E7.67853
G1 X105.492 Y108.96 E7.69789
G1 X105.669 Y109.242 E7.70782
G1 X106.008 Y109.684 E7.72444
G1 X107.118 Y110.805 E7.7715
;WIPE_START
G1 F9600
G1 X106.008 Y109.684 E7.39683
G1 X105.669 Y109.242 E7.26453
G1 X105.492 Y108.96 E7.18546
G1 X105.207 Y108.377 E7.03134
G1 X107.47 Y110.64 E6.2715
;WIPE_END
G92 E0
G1 Z.47 F12000
G92 E0
G1 X86.983 Y113.757
G1 Z.2
G1 E1.5 F2400
;TYPE:External perimeter
;WIDTH:0.52502
G1 F1260
G1 X86.771 Y113.592 E1.51055
;WIDTH:0.490784
G1 X86.558 Y113.428 E1.52036
;WIDTH:0.456548
G1 X86.232 Y113.044 E1.53734
;WIDTH:0.471805
G1 X86.124 Y112.871 E1.54447
;WIDTH:0.502708
G1 X86.016 Y112.698 E1.55211
;WIPE_START
G1 F9600
G1 X86.124 Y112.871 E1.50367
G1 X86.232 Y113.044 E1.45523
G1 X86.558 Y113.428 E1.3356
G1 X86.771 Y113.592 E1.27175
G1 X86.983 Y113.757 E1.20795
;WIPE_END
G1 E.05211 F2400
G92 E0
G1 Z.47 F12000
G1 X106.133 Y84.3
G1 Z.2
G1 E1.7 F2400
;WIDTH:0.413246
G1 F1680
G1 X106.237 Y84.352 E1.70351
G1 X106.212 Y84.414 E1.70553
G1 X106.039 Y84.85 E1.71969
;WIDTH:0.442624
G1 X105.766 Y85.285 E1.73642
G1 X105.557 Y85.743 E1.75282
;WIDTH:0.399999
G1 X91.208 Y115.51 E2.71434
G1 X90.514 Y115.216 E2.73627
G1 X88.98 Y114.632 E2.78403
G1 X88.473 Y114.475 E2.79947
;WIDTH:0.406105
G1 X87.66 Y114.266 E2.82431
G1 X87.279 Y114.045 E2.83735
;WIDTH:0.445744
G1 X87.18 Y113.949 E2.84188
;WIDTH:0.485382
G1 X87.082 Y113.853 E2.84683
;WIDTH:0.52502
G1 X86.983 Y113.757 E2.85225
G1 X87.123 Y113.787 E2.85787
;WIDTH:0.485382
G1 X87.264 Y113.817 E2.86307
;WIDTH:0.445744
G1 X87.404 Y113.848 E2.86778
;WIDTH:0.416802
G1 X88.102 Y113.987 E2.88946
G1 X88.528 Y113.97 E2.90245
;WIDTH:0.399999
G1 X88.774 Y113.913 E2.9098
G1 X89.167 Y113.716 E2.92259
G1 X89.534 Y113.388 E2.93691
G1 X89.861 Y112.886 E2.95434
G1 X90.01 Y112.467 E2.96728
G1 X90.069 Y112.035 E2.97997
G1 X90.042 Y111.6 E2.99265
G1 X89.914 Y111.138 E3.0066
G1 X89.617 Y110.616 E3.02408
G1 X89.314 Y110.291 E3.03701
G1 X89.002 Y110.07 E3.04814
G1 X88.56 Y109.863 E3.06234
G1 X88.134 Y109.768 E3.07504
G1 X87.794 Y109.759 E3.08494
G1 X87.27 Y109.836 E3.10035
G1 X86.864 Y109.997 E3.11306
G1 X86.499 Y110.237 E3.12577
G1 X86.255 Y110.488 E3.13596
;WIDTH:0.425285
G1 X86.104 Y110.707 E3.14425
;WIDTH:0.45057
G1 X85.954 Y110.927 E3.1531
G1 X85.867 Y111.423 E3.16983
;WIDTH:0.420434
G1 X85.924 Y111.963 E3.18653
;WIDTH:0.453098
G1 X85.97 Y112.331 E3.19893
;WIDTH:0.502708
G1 X86.016 Y112.698 E3.21279
G1 X85.802 Y112.385 E3.227
;WIDTH:0.453098
G1 X85.589 Y112.071 E3.23968
;WIDTH:0.427377
G1 X85.492 Y111.572 E3.25561
G1 X85.497 Y111.319 E3.26354
;WIDTH:0.45057
G1 X85.629 Y110.478 E3.29182
;WIDTH:0.425285
G1 X85.683 Y110.17 E3.30156
;WIDTH:0.399999
G1 X85.9 Y109.467 E3.32297
G1 X86.499 Y107.826 E3.3738
G1 X86.725 Y107.288 E3.39078
G1 X86.984 Y106.761 E3.40787
G1 X87.923 Y105.061 E3.46438
G1 X88.226 Y104.46 E3.48396
G1 X88.572 Y103.67 E3.50905
G1 X88.966 Y102.59 E3.5425
G1 X89.294 Y101.483 E3.5761
G1 X89.558 Y100.371 E3.60936
G1 X89.768 Y99.243 E3.64275
G1 X89.928 Y98.103 E3.67625
G1 X90.037 Y96.973 E3.70928
G1 X90.073 Y96.393 E3.72619
G1 X90.1 Y95.249 E3.75949
G1 X90.078 Y94.385 E3.78464
G1 X90.018 Y93.519 E3.8099
G1 X89.916 Y92.664 E3.83495
G1 X89.823 Y92.098 E3.85164
G1 X89.651 Y91.264 E3.87642
G1 X89.513 Y90.711 E3.893
G1 X89.191 Y89.626 E3.92593
G1 X89.007 Y89.087 E3.9425
G1 X88.6 Y88.024 E3.97562
G1 X88.144 Y86.976 E4.00888
G1 X87.896 Y86.454 E4.0257
G1 X87.171 Y85.08 E4.0709
G1 X86.653 Y84.16 E4.10162
G1 X86.676 Y84.022 E4.10569
G1 X87.121 Y83.841 E4.11967
G1 X87.849 Y83.689 E4.14131
G1 X88.788 Y83.622 E4.1687
G1 X89.487 Y83.641 E4.18905
G1 X90.211 Y83.705 E4.2102
G1 X90.931 Y83.803 E4.23134
G1 X91.888 Y83.97 E4.25961
G1 X93.787 Y84.351 E4.31597
G1 X94.735 Y84.564 E4.34424
G1 X95.439 Y84.75 E4.36543
G1 X96.133 Y84.967 E4.38659
G1 X96.749 Y85.205 E4.40581
G1 X97.288 Y85.445 E4.42298
G1 X97.768 Y85.695 E4.43873
G1 X102.187 Y88.375 E4.58911
G1 X102.28 Y88.4 E4.59191
G1 X102.41 Y88.343 E4.59604
G1 X105.109 Y85.418 E4.71185
;WIDTH:0.413246
G1 X105.701 Y84.706 E4.73979
G1 X106.089 Y84.338 E4.75593
;WIPE_START
G1 F9600
G1 X106.133 Y84.3 E4.74212
G1 X106.237 Y84.352 E4.7145
G1 X106.212 Y84.414 E4.69862
G1 X106.039 Y84.85 E4.58722
G1 X105.766 Y85.285 E4.46525
G1 X105.557 Y85.743 E4.34568
G1 X103.565 Y89.876 E3.25593
;WIPE_END
G92 E0
G1 Z.47 F12000
G1 X104.986 Y86.079
G1 Z.2
G1 E1.5 F2400
;TYPE:Perimeter
;WIDTH:0.399999
G1 F1890
G1 X91.034 Y115.049 E2.43562
G1 X90.641 Y114.882 E2.44804
G1 X88.921 Y114.237 E2.50149
G1 X89.33 Y114.034 E2.51478
G1 X89.74 Y113.691 E2.53033
G1 X89.895 Y113.488 E2.53776
G1 X90.219 Y112.96 E2.55579
G1 X90.372 Y112.478 E2.5705
