; generated by PrusaSlicer 2.9.2 on 2025-08-12 at 07:15:12 UTC

; 

; external perimeters extrusion width = 0.40mm
; perimeters extrusion width = 0.40mm
; infill extrusion width = 0.60mm
; solid infill extrusion width = 0.40mm
; top infill extrusion width = 0.40mm
; support material extrusion width = 0.40mm
; first layer extrusion width = 0.40mm

; external perimeters extrusion width = 0.40mm
; perimeters extrusion width = 0.40mm
; infill extrusion width = 0.60mm
; solid infill extrusion width = 0.40mm
; top infill extrusion width = 0.40mm
; support material extrusion width = 0.40mm
; first layer extrusion width = 0.40mm

; external perimeters extrusion width = 0.40mm
; perimeters extrusion width = 0.40mm
; infill extrusion width = 0.60mm
; solid infill extrusion width = 0.40mm
; top infill extrusion width = 0.40mm
; support material extrusion width = 0.40mm
; first layer extrusion width = 0.40mm

M190 S60 ; set bed temperature and wait for it to be reached
M104 S215 ; set temperature
;TYPE:Custom
M42 S1 ; enciende el LED
G4 P500;
M42 S0 ; apaga el LED
G4 P500;
M42 S1 ; enciende el LED
G4 P100;
M42 S0 ; apaga el LED
G4 P100;
M42 S1 ; enciende el LED
G4 P100;
M42 S0 ; apaga el LED
G4 P400;
M42 S1 ; enciende el LED

G28 ; home all axes
M109 S215 ; set temperature and wait for it to be reached
G21 ; set units to millimeters
G90 ; use absolute coordinates
M82 ; use absolute distances for extrusion
G92 E0
; Filament gcode
M106 S255
;LAYER_CHANGE
;Z:0.2
;HEIGHT:0.2
G1 E-1.5 F2400
G92 E0
G1 Z.47 F12000
G1 X91.993 Y65.119
G1 Z.2
G1 E1.7 F2400
M204 S1000
;TYPE:Skirt/Brim
;WIDTH:0.4
G1 F3360
G1 X93.102 Y63.552 E1.75472
G1 X94.182 Y62.373 E1.80029
G1 X95.075 Y61.657 E1.83292
G1 X96.881 Y60.681 E1.89143
G1 X98.414 Y60.223 E1.93703
G1 X99.549 Y60.068 E1.96968
G1 X101.149 Y60.097 E2.01529
G1 X102.718 Y60.413 E2.06091
G1 X104.205 Y61.004 E2.10652
G1 X113.28 Y65.529 E2.39556
G1 X114.854 Y66.596 E2.44976
G1 X115.68 Y67.386 E2.48234
G1 X116.65 Y68.653 E2.52782
G1 X117.436 Y70.201 E2.57731
G1 X130.258 Y101.138 E3.53186
G1 X130.773 Y103.025 E3.58761
G1 X130.9 Y104.082 E3.61796
G1 X130.918 Y105.169 E3.64895
G1 X130.82 Y106.252 E3.67995
G1 X130.61 Y107.32 E3.71097
G1 X130.288 Y108.358 E3.74195
G1 X129.854 Y109.369 E3.77331
G1 X129.282 Y110.38 E3.80642
G1 X128.676 Y111.225 E3.83606
G1 X127.316 Y112.635 E3.8919
G1 X103.486 Y131.18 E4.75259
G1 X102.423 Y131.935 E4.78975
G1 X101.81 Y132.254 E4.80945
G1 X100.69 Y132.653 E4.84334
G1 X100.013 Y132.794 E4.86305
G1 X98.507 Y132.879 E4.90604
G1 X96.336 Y132.735 E4.96806
G1 X95.134 Y132.512 E5.00291
G1 X94.458 Y132.284 E5.02324
G1 X93.362 Y131.733 E5.05821
G1 X92.774 Y131.325 E5.07861
G1 X91.699 Y130.309 E5.12077
G1 X71.163 Y106.992 E6.00641
G1 X70.193 Y105.438 E6.05863
G1 X69.525 Y103.774 E6.10974
G1 X69.177 Y102.2 E6.15569
G1 X69.085 Y100.355 E6.20834
G1 X69.247 Y98.898 E6.25013
G1 X69.598 Y97.525 E6.29052
G1 X70.057 Y96.372 E6.32589
G1 X70.742 Y95.139 E6.36609
G1 X91.958 Y65.168 E7.41275
G1 X92.248 Y65.373 F12000
G1 F3360
G1 X93.372 Y63.786 E7.46818
G1 X94.405 Y62.651 E7.51192
G1 X95.298 Y61.935 E7.54455
G1 X96.991 Y61.02 E7.5994
G1 X98.462 Y60.577 E7.64319
G1 X99.598 Y60.421 E7.67587
G1 X101.133 Y60.454 E7.71963
G1 X102.639 Y60.761 E7.76344
G1 X104.065 Y61.332 E7.80722
G1 X113.12 Y65.849 E8.09565
G1 X114.607 Y66.854 E8.14681
G1 X115.433 Y67.644 E8.17939
G1 X116.361 Y68.863 E8.22306
G1 X117.106 Y70.338 E8.27016
G1 X129.926 Y101.268 E9.22451
G1 X130.42 Y103.082 E9.2781
G1 X130.544 Y104.106 E9.3075
G1 X130.561 Y105.157 E9.33746
G1 X130.467 Y106.204 E9.36742
G1 X130.263 Y107.235 E9.39738
G1 X129.952 Y108.24 E9.42737
G1 X129.532 Y109.215 E9.45763
G1 X128.983 Y110.185 E9.4894
G1 X128.394 Y111.006 E9.5182
G1 X127.087 Y112.361 E9.57186
G1 X103.267 Y130.898 E10.43219
G1 X102.217 Y131.644 E10.4689
G1 X101.69 Y131.917 E10.48582
G1 X100.57 Y132.317 E10.51972
G1 X99.989 Y132.438 E10.53664
G1 X98.528 Y132.522 E10.57835
G1 X96.401 Y132.384 E10.6391
G1 X95.199 Y132.161 E10.67395
G1 X94.619 Y131.965 E10.6914
G1 X93.522 Y131.414 E10.72639
G1 X93.017 Y131.063 E10.74392
G1 X91.967 Y130.073 E10.78505
G1 X71.451 Y106.78 E11.6698
G1 X70.513 Y105.278 E11.72028
G1 X69.865 Y103.666 E11.7698
G1 X69.531 Y102.155 E11.81391
G1 X69.442 Y100.373 E11.86477
G1 X69.598 Y98.965 E11.90515
G1 X69.939 Y97.632 E11.94437
G1 X70.379 Y96.527 E11.97827
G1 X71.044 Y95.331 E12.01728
G1 X92.213 Y65.422 E13.06173
;WIPE_START
G1 F9600
G1 X92.248 Y65.373 E13.04743
G1 X93.372 Y63.786 E12.58556
G1 X94.405 Y62.651 E12.22107
G1 X95.298 Y61.935 E11.94923
G1 X96.734 Y61.159 E11.56173
;WIPE_END
G92 E0
G1 Z.47 F12000
G92 E0
G1 X77.439 Y98.751
G1 Z.2
G1 E1.5 F2400
;TYPE:External perimeter
;WIDTH:0.399999
G1 F1260
G1 X77.445 Y98.738 E1.50041
G1 X77.566 Y98.693 E1.50409
G1 X81.308 Y98.738 E1.61076
G1 X81.44 Y98.798 E1.61489
G1 X81.484 Y98.961 E1.6197
G1 X81.44 Y102.662 E1.7252
G1 X81.379 Y102.793 E1.72932
G1 X81.259 Y102.837 E1.73296
G1 X77.516 Y102.793 E1.83966
G1 X77.371 Y102.714 E1.84437
G1 X77.341 Y102.551 E1.84909
G1 X77.385 Y98.869 E1.95405
G1 X77.414 Y98.805 E1.95605
G1 X77.198 Y98.498 F12000
;TYPE:Perimeter
G1 F1260
G1 X77.278 Y98.418 E1.95927
G1 X77.564 Y98.336 E1.96775
G1 X81.313 Y98.381 E2.07462
G1 X81.511 Y98.422 E2.08038
G1 X81.708 Y98.562 E2.08727
G1 X81.809 Y98.733 E2.09293
G1 X81.841 Y98.965 E2.09961
G1 X81.797 Y102.667 E2.20514
G1 X81.712 Y102.948 E2.21351
G1 X81.544 Y103.114 E2.22024
G1 X81.263 Y103.195 E2.22858
G1 X77.512 Y103.15 E2.3355
G1 X77.272 Y103.09 E2.34255
G1 X77.075 Y102.914 E2.35008
G1 X76.991 Y102.707 E2.35645
G1 X77.028 Y98.865 E2.46597
G1 X77.111 Y98.585 E2.47429
G1 X77.156 Y98.54 E2.4761
G1 X76.944 Y98.241 F12000
G1 F1260
G1 X76.973 Y98.202 E2.47749
G1 X77.265 Y98.03 E2.48715
G1 X77.574 Y97.979 E2.49608
G1 X81.317 Y98.024 E2.60278
G1 X81.648 Y98.092 E2.61241
G1 X81.966 Y98.315 E2.62348
G1 X82.145 Y98.611 E2.63334
G1 X82.198 Y98.969 E2.64366
G1 X82.154 Y102.672 E2.74922
G1 X82.072 Y103.033 E2.75977
G1 X81.851 Y103.33 E2.77032
G1 X81.564 Y103.499 E2.77981
G1 X81.251 Y103.552 E2.78886
G1 X77.508 Y103.507 E2.89556
G1 X77.181 Y103.44 E2.90507
G1 X76.905 Y103.263 E2.91442
G1 X76.779 Y103.113 E2.92
G1 X76.639 Y102.768 E2.93061
G1 X76.631 Y102.207 E2.9466
G1 X76.671 Y98.861 E3.04198
G1 X76.751 Y98.502 E3.05246
G1 X76.909 Y98.289 E3.06002
;WIPE_START
G1 F9600
G1 X76.944 Y98.241 E3.04591
G1 X76.973 Y98.202 E3.03437
G1 X77.265 Y98.03 E2.95388
G1 X77.574 Y97.979 E2.8795
G1 X81.317 Y98.024 E1.99047
G1 X81.648 Y98.092 E1.91022
G1 X81.966 Y98.315 E1.81798
G1 X82.145 Y98.611 E1.73583
G1 X82.198 Y98.969 E1.64988
G1 X82.193 Y99.347 E1.56002
;WIPE_END
G92 E0
G1 Z.47 F12000
G1 X85.278 Y105.597
G1 Z.2
G1 E1.5 F2400
;TYPE:External perimeter
G1 F1890
G1 X84.728 Y106.196 E1.52318
G1 X84.114 Y106.736 E1.54649
G1 X83.475 Y107.188 E1.5688
G1 X82.975 Y107.478 E1.58528
G1 X82.232 Y107.822 E1.60862
G1 X81.458 Y108.084 E1.63191
G1 X80.658 Y108.262 E1.65527
G1 X80.086 Y108.335 E1.67171
G1 X79.267 Y108.364 E1.69507
G1 X78.486 Y108.308 E1.71739
G1 X77.88 Y108.209 E1.73489
G1 X77.123 Y108.012 E1.75719
G1 X76.358 Y107.724 E1.78049
G1 X75.627 Y107.355 E1.80383
G1 X75.137 Y107.048 E1.82031
G1 X74.486 Y106.552 E1.84364
G1 X73.917 Y106.014 E1.86596
G1 X73.511 Y105.553 E1.88347
G1 X73.03 Y104.891 E1.90679
G1 X72.64 Y104.214 E1.92906
G1 X72.308 Y103.465 E1.95241
G1 X72.124 Y102.918 E1.96886
G1 X71.935 Y102.121 E1.99221
G1 X71.835 Y101.344 E2.01454
G1 X71.813 Y100.731 E2.03202
G1 X71.857 Y99.949 E2.05435
G1 X71.988 Y99.142 E2.07765
G1 X72.206 Y98.353 E2.10098
G1 X72.41 Y97.813 E2.11743
G1 X72.768 Y97.076 E2.14078
G1 X73.183 Y96.412 E2.1631
G1 X73.532 Y95.951 E2.17958
G1 X74.084 Y95.347 E2.2029
G1 X74.697 Y94.806 E2.2262
G1 X75.365 Y94.333 E2.24953
G1 X75.865 Y94.044 E2.26599
G1 X76.609 Y93.701 E2.28934
G1 X77.384 Y93.441 E2.31264
G1 X78.148 Y93.272 E2.33494
G1 X78.757 Y93.194 E2.35244
G1 X79.54 Y93.167 E2.37477
G1 X80.357 Y93.224 E2.39811
G1 X80.926 Y93.318 E2.41455
G1 X81.719 Y93.524 E2.4379
G1 X82.483 Y93.814 E2.46119
G1 X83.214 Y94.184 E2.48454
G1 X83.702 Y94.493 E2.501
G1 X84.325 Y94.967 E2.52331
G1 X84.841 Y95.454 E2.54353
G1 X85.229 Y95.88 E2.55995
G1 X85.585 Y96.35 E2.57676
G1 X85.887 Y96.801 E2.59223
G1 X86.247 Y97.454 E2.61348
G1 X86.547 Y98.161 E2.63537
G1 X86.734 Y98.749 E2.65296
G1 X86.905 Y99.535 E2.67589
G1 X86.996 Y100.332 E2.69875
G1 X87.012 Y100.781 E2.71156
G1 X86.966 Y101.599 E2.73491
G1 X86.84 Y102.372 E2.75723
G1 X86.697 Y102.932 E2.7737
G1 X86.421 Y103.703 E2.79704
G1 X86.065 Y104.439 E2.82034
G1 X85.631 Y105.133 E2.84367
G1 X85.315 Y105.549 E2.85856
G1 X84.997 Y105.375 F12000
;TYPE:Perimeter
G1 F2100
G1 X84.478 Y105.941 E2.88045
G1 X83.893 Y106.455 E2.90265
G1 X83.281 Y106.887 E2.924
G1 X82.81 Y107.161 E2.93953
G1 X82.099 Y107.49 E2.96186
G1 X81.362 Y107.74 E2.98404
G1 X80.597 Y107.91 E3.00638
G1 X80.057 Y107.979 E3.0219
G1 X79.273 Y108.006 E3.04426
G1 X78.528 Y107.953 E3.06555
G1 X77.954 Y107.859 E3.08213
G1 X77.231 Y107.671 E3.10342
G1 X76.501 Y107.396 E3.12566
G1 X75.802 Y107.043 E3.14798
G1 X75.341 Y106.754 E3.16349
G1 X74.717 Y106.279 E3.18584
G1 X74.174 Y105.766 E3.20713
G1 X73.79 Y105.33 E3.22369
G1 X73.33 Y104.696 E3.24602
G1 X72.959 Y104.052 E3.2672
G1 X72.641 Y103.335 E3.28956
G1 X72.467 Y102.819 E3.30508
G1 X72.286 Y102.057 E3.3274
G1 X72.191 Y101.315 E3.34872
G1 X72.171 Y100.734 E3.36529
G1 X72.212 Y99.988 E3.38659
G1 X72.337 Y99.219 E3.4088
G1 X72.546 Y98.464 E3.43113
G1 X72.738 Y97.954 E3.44666
G1 X73.081 Y97.249 E3.46901
G1 X73.478 Y96.615 E3.49033
G1 X73.806 Y96.18 E3.50586
G1 X74.334 Y95.602 E3.52817
G1 X74.918 Y95.086 E3.55038
G1 X75.558 Y94.634 E3.57271
G1 X76.03 Y94.362 E3.58824
G1 X76.741 Y94.034 E3.61056
G1 X77.48 Y93.786 E3.63278
G1 X78.21 Y93.624 E3.65409
G1 X78.786 Y93.55 E3.67064
G1 X79.533 Y93.524 E3.69195
G1 X80.315 Y93.579 E3.71429
G1 X80.852 Y93.668 E3.72981
G1 X81.61 Y93.865 E3.75213
G1 X82.339 Y94.141 E3.77435
G1 X83.037 Y94.495 E3.79666
G1 X83.499 Y94.786 E3.81222
G1 X84.094 Y95.24 E3.83355
G1 X84.596 Y95.714 E3.85323
G1 X84.961 Y96.116 E3.86871
G1 X85.296 Y96.561 E3.88459
G1 X85.577 Y96.979 E3.89895
G1 X85.92 Y97.599 E3.91915
G1 X86.209 Y98.275 E3.94011
G1 X86.387 Y98.832 E3.95678
G1 X86.551 Y99.581 E3.97863
G1 X86.639 Y100.344 E4.00052
G1 X86.655 Y100.778 E4.0129
G1 X86.611 Y101.56 E4.03523
G1 X86.49 Y102.299 E4.05657
G1 X86.355 Y102.827 E4.0721
G1 X86.091 Y103.565 E4.09444
G1 X85.752 Y104.266 E4.11663
G1 X85.337 Y104.93 E4.13895
G1 X85.034 Y105.328 E4.15321
G1 X84.713 Y105.151 F12000
G1 F2100
G1 X84.681 Y105.191 E4.15467
G1 X84.054 Y105.838 E4.18035
G1 X83.598 Y106.226 E4.19742
G1 X83.022 Y106.625 E4.21739
G1 X82.57 Y106.879 E4.23217
G1 X81.829 Y107.205 E4.25524
G1 X81.162 Y107.418 E4.2752
G1 X80.443 Y107.57 E4.29615
G1 X79.934 Y107.626 E4.31075
G1 X79.171 Y107.641 E4.3325
G1 X78.477 Y107.583 E4.35235
G1 X77.939 Y107.486 E4.36793
G1 X77.242 Y107.294 E4.38854
G1 X76.556 Y107.024 E4.40955
G1 X75.909 Y106.689 E4.43032
G1 X75.294 Y106.27 E4.45153
G1 X74.884 Y105.946 E4.46643
G1 X74.381 Y105.46 E4.48637
G1 X74.023 Y105.043 E4.50204
G1 X73.585 Y104.423 E4.52368
G1 X73.239 Y103.803 E4.54392
G1 X72.947 Y103.123 E4.56501
G1 X72.79 Y102.633 E4.57968
G1 X72.625 Y101.887 E4.60146
G1 X72.544 Y101.192 E4.6214
G1 X72.533 Y100.644 E4.63702
G1 X72.585 Y99.919 E4.65774
G1 X72.715 Y99.191 E4.67882
G1 X72.917 Y98.491 E4.69959
G1 X73.105 Y98.016 E4.71415
G1 X73.444 Y97.343 E4.73563
G1 X73.818 Y96.757 E4.75545
G1 X74.137 Y96.347 E4.77026
G1 X74.764 Y95.699 E4.79596
G1 X75.214 Y95.314 E4.81284
G1 X75.82 Y94.895 E4.83384
G1 X76.268 Y94.645 E4.84846
G1 X76.999 Y94.324 E4.87122
G1 X77.677 Y94.108 E4.8915
G1 X78.362 Y93.965 E4.91145
G1 X78.909 Y93.903 E4.92714
G1 X79.636 Y93.889 E4.94787
G1 X80.366 Y93.95 E4.96875
G1 X80.868 Y94.041 E4.98329
G1 X81.6 Y94.243 E5.00493
G1 X82.284 Y94.513 E5.02589
G1 X82.93 Y94.85 E5.04666
G1 X83.355 Y95.126 E5.0611
G1 X83.927 Y95.573 E5.08179
G1 X84.457 Y96.084 E5.10277
G1 X84.79 Y96.473 E5.11737
G1 X85.268 Y97.158 E5.14118
G1 X85.593 Y97.743 E5.16026
G1 X85.871 Y98.389 E5.18031
G1 X86.039 Y98.915 E5.19605
G1 X86.197 Y99.626 E5.21681
G1 X86.282 Y100.357 E5.23779
G1 X86.292 Y100.869 E5.25239
G1 X86.238 Y101.628 E5.27408
G1 X86.118 Y102.312 E5.29387
G1 X85.982 Y102.809 E5.30856
G1 X85.718 Y103.517 E5.3301
G1 X85.388 Y104.174 E5.35106
G1 X84.995 Y104.79 E5.37189
G1 X84.75 Y105.103 E5.38322
;WIPE_START
G1 F9600
G1 X84.713 Y105.151 E5.36883
G1 X84.681 Y105.191 E5.35666
G1 X84.054 Y105.838 E5.14268
G1 X83.598 Y106.226 E5.00048
G1 X83.022 Y106.625 E4.83406
G1 X82.57 Y106.879 E4.71092
G1 X81.829 Y107.205 E4.51865
G1 X81.162 Y107.418 E4.35236
G1 X80.443 Y107.57 E4.17782
G1 X79.934 Y107.626 E4.0562
G1 X79.206 Y107.64 E3.88322
;WIPE_END
G92 E0
G1 Z.47 F12000
G1 X83.012 Y95.092
G1 Z.2
G1 E1.5 F2400
;TYPE:Solid infill
;WIDTH:0.407219
G1 F2100
G1 X84.211 Y96.291 E1.54931
G1 X84.494 Y96.611 E1.56173
G1 X84.915 Y97.189 E1.58252
G1 X85.316 Y97.911 E1.60654
G1 X82.274 Y94.869 E1.73164
G1 X82.064 Y94.762 E1.73849
G1 X81.402 Y94.512 E1.75907
G1 X85.66 Y98.77 E1.93418
G1 X85.84 Y99.465 E1.95506
G1 X80.706 Y94.331 E2.1662
G1 X80.104 Y94.245 E2.18388
G1 X85.93 Y100.07 E2.42345
G1 X85.97 Y100.626 E2.43966
G1 X79.556 Y94.212 E2.70344
G1 X79.052 Y94.223 E2.7181
G1 X85.955 Y101.126 E3.00199
G1 X85.916 Y101.602 E3.01588
G1 X78.575 Y94.261 E3.31778
G1 X78.135 Y94.336 E3.33076
G1 X81.527 Y97.728 E3.47026
G1 X81.774 Y97.796 E3.47771
G1 X81.998 Y97.918 E3.48513
G1 X82.215 Y98.11 E3.49356
G1 X82.311 Y98.235 E3.49814
G1 X82.447 Y98.499 E3.50678
G1 X82.501 Y98.702 E3.51289
G1 X85.844 Y102.045 E3.65037
G1 X85.748 Y102.464 E3.66287
G1 X82.516 Y99.233 E3.79577
G1 X82.51 Y99.742 E3.81057
G1 X85.624 Y102.856 E3.93863
G1 X85.489 Y103.235 E3.95033
G1 X82.504 Y100.251 E4.07307
G1 X82.498 Y100.76 E4.08787
G1 X85.326 Y103.588 E4.20417
G1 X85.158 Y103.935 E4.21538
G1 X82.492 Y101.269 E4.32502
G1 X82.486 Y101.778 E4.33982
G1 X84.96 Y104.253 E4.44158
G1 X84.76 Y104.568 E4.45243
G1 X82.48 Y102.287 E4.54622
G1 X82.463 Y102.786 E4.56074
G1 X84.538 Y104.86 E4.64605
G1 X84.297 Y105.135 E4.65668
G1 X82.352 Y103.19 E4.73667
G1 X82.282 Y103.318 E4.74091
G1 X82.135 Y103.488 E4.74745
G1 X84.05 Y105.403 E4.8262
G1 X83.781 Y105.65 E4.83682
G1 X81.849 Y103.717 E4.91629
G1 X81.676 Y103.801 E4.92188
G1 X81.468 Y103.852 E4.92811
G1 X83.507 Y105.891 E5.01196
G1 X83.472 Y105.922 E5.01332
G1 X83.209 Y106.107 E5.02267
G1 X80.971 Y103.87 E5.11469
G1 X80.45 Y103.863 E5.12984
G1 X82.906 Y106.32 E5.23086
G1 X82.581 Y106.51 E5.24181
G1 X79.928 Y103.857 E5.35092
G1 X79.407 Y103.851 E5.36607
G1 X82.235 Y106.68 E5.48239
G1 X81.883 Y106.843 E5.49367
G1 X78.885 Y103.845 E5.61696
G1 X78.364 Y103.838 E5.63211
G1 X81.502 Y106.976 E5.76116
G1 X81.111 Y107.101 E5.7731
G1 X77.68 Y103.669 E5.91422
;WIPE_START
G1 F9600
G1 X81.111 Y107.101 E4.76166
G1 X81.502 Y106.976 E4.66417
G1 X80.758 Y106.232 E4.41422
;WIPE_END
G92 E0
G1 Z.47 F12000
G1 X81.145 Y97.862
G1 Z.2
G1 E1.5 F2400
G1 F2100
G1 X77.713 Y94.429 E1.64116
G1 X77.323 Y94.554 E1.65307
G1 X80.461 Y97.693 E1.78214
G1 X79.94 Y97.686 E1.79729
G1 X76.942 Y94.688 E1.92058
G1 X76.589 Y94.851 E1.93189
G1 X79.418 Y97.68 E2.04823
G1 X78.897 Y97.674 E2.06338
G1 X76.244 Y95.021 E2.17249
G1 X75.918 Y95.21 E2.18345
G1 X78.375 Y97.667 E2.28449
G1 X77.853 Y97.661 E2.29967
G1 X75.616 Y95.424 E2.39167
G1 X75.317 Y95.639 E2.40238
G1 X77.356 Y97.678 E2.48623
G1 X77.155 Y97.728 E2.49225
G1 X76.976 Y97.814 E2.49802
G1 X75.043 Y95.881 E2.57752
G1 X74.774 Y96.127 E2.58812
G1 X76.684 Y98.037 E2.66667
G1 X76.537 Y98.222 E2.67354
G1 X76.475 Y98.343 E2.67749
G1 X74.528 Y96.396 E2.75756
G1 X74.287 Y96.67 E2.76817
G1 X76.362 Y98.745 E2.8535
G1 X76.345 Y99.243 E2.86799
G1 X74.065 Y96.963 E2.96176
G1 X73.864 Y97.277 E2.9726
G1 X76.339 Y99.753 E3.07441
G1 X76.333 Y100.262 E3.08921
G1 X73.667 Y97.596 E3.19885
G1 X73.498 Y97.942 E3.21005
G1 X76.327 Y100.771 E3.32639
G1 X76.32 Y101.28 E3.34119
G1 X73.335 Y98.294 E3.46397
G1 X73.194 Y98.668 E3.47559
G1 X76.314 Y101.789 E3.60392
G1 X76.308 Y102.298 E3.61872
G1 X73.082 Y99.071 E3.75141
G1 X72.981 Y99.486 E3.76383
G1 X76.323 Y102.828 E3.90127
G1 X76.387 Y103.055 E3.90813
